X: 733
T: Knäppandansin
R: Polska
O: Österbotten, Finland
C: Trad
S: Gunnar Bärlunds notsida
N: Gunnar Bärlunds källhänvisning: "Svenska litteratursällskapet i Finland, VI, Folkdans, A1 Äldre dansmelodier, nr 733. Efter [[Personer/Leander Honga]], uppt. av [[Personer/Otto Andersson]]"
B:nr 733
M: 3/4
L: 1/16
K: Am
e2e2 c2{/d}cB c2A2 | e2e2 c2{/d}cB c2A2 | e2g2 f2e2 d2c2 | cBAG B2A2 A4 ::
A2AB c2cd e2a2 | agbg e4 c4 | efgf edcB dcBA |1 ^GABc B2A2 E4 :|2 ^GABG B2A2 A4 |]

